svgs/solid/popcorn.svg

<svg xmlns="http://www.w3.org/2000/svg" viewBox="0 0 448 512"><!--! Font Awesome Pro 6.0.0-alpha3 by @fontawesome - https://fontawesome.com License - https://fontawesome.com/license (Commercial License) --><path d="M351.7 192c.002 .6739 .2344 1.297 .1484 1.984l-32 256c-1.016 8.094-7.906 14.02-15.86 14.02c-.6562 0-1.328-.0469-2-.125c-8.766-1.094-14.98-9.094-13.89-17.86l31.75-254H240v256c0 8.844-7.156 16-16 16s-16-7.157-16-16v-256H128.1l31.75 254c1.094 8.766-5.125 16.77-13.89 17.86c-.6719 .0782-1.344 .125-2 .125c-7.953 0-14.84-5.922-15.86-14.02l-32-256c-.0859-.6875 .1465-1.311 .1484-1.984H0l73.91 295.8C77.47 502 90.17 512 104.9 512l238.3-.0098c14.68-.002 27.35-9.948 30.91-24.2L448 192H351.7zM411.6 138.9c-7-11.88-19.38-19.63-33.13-20.75c6.5-11.75 6.375-25.88-.25-37.5c-9.125-16-28-23.63-45.63-20.13c-.25-16.63-11.5-32-29-37.5c-13.25-4.25-27.88-1.875-39.13 6.5c0-.75-.25-1.375-.625-2C256.7 6.343 232.7-4.782 210.5 1.969C197.5 5.969 187.2 16.22 183.1 29.22C171.1 21.09 157.5 18.84 144.4 23.09c-17.5 5.375-28.62 20.75-29 37.38c-17.62-3.5-36.5 4.125-45.63 20.13C62.1 92.1 62.87 106.5 69.5 118.1C55.1 119.4 43.12 126.7 36.37 138.9C32.5 145.6 31.62 152.9 32.12 159.1h383.8C416.4 152.9 415.5 145.6 411.6 138.9z"/></svg>

<svg xmlns="http://www.w3.org/2000/svg" viewBox="0 0 448 512"><!-- Font Awesome Pro 6.0.0-alpha2 by @fontawesome - https://fontawesome.com License - https://fontawesome.com/license (Commercial License) --><path d="M351.727 192.011C351.729 192.685 351.961 193.308 351.875 193.996L319.875 450.012C318.859 458.106 311.969 464.028 304.016 464.028C303.359 464.028 302.688 463.981 302.016 463.903C293.25 462.809 287.031 454.809 288.125 446.043L319.877 192.011H240V448.027C240 456.872 232.844 464.028 224 464.028S208 456.872 208 448.027V192.011H128.123L159.875 446.043C160.969 454.809 154.75 462.809 145.984 463.903C145.312 463.981 144.641 464.028 143.984 464.028C136.031 464.028 129.141 458.106 128.125 450.012L96.125 193.996C96.039 193.308 96.271 192.685 96.273 192.011H0L73.898 487.756C77.459 502.003 90.213 512 104.898 512C159.402 511.998 288.6 511.994 343.102 511.99C357.785 511.988 370.537 501.994 374.098 487.747L448 192.011H351.727ZM411.623 138.852C404.623 126.976 392.248 119.226 378.498 118.101C384.998 106.35 384.873 92.224 378.248 80.598C369.123 64.597 350.248 56.972 332.623 60.472C332.373 43.846 321.123 28.47 303.623 22.97C290.373 18.719 275.748 21.095 264.498 29.47C264.498 28.72 264.248 28.095 263.873 27.47C256.748 6.344 232.748 -4.782 210.498 1.968C197.498 5.969 187.248 16.219 183.123 29.22C171.998 21.095 157.498 18.844 144.373 23.095C126.873 28.47 115.748 43.846 115.373 60.472C97.748 56.972 78.873 64.597 69.748 80.598C62.998 92.099 62.873 106.475 69.498 118.101C55.998 119.351 43.123 126.726 36.373 138.852C32.498 145.602 31.623 152.853 32.123 159.978H415.873C416.373 152.853 415.498 145.602 411.623 138.852Z"/></svg>
